!!!SOCIAL_FUNCTION:	songs of the sun dance
!!!PDT:	1922
!!!OTL: No_19_Sun_Dance_Song_(b).krn
!!!REG: Southwest
!!!LANG: Non-Tone
!!!LING_GROUP: Uto-Aztecan
**kern
*staff1
=1-
*clefF4
*k[b-e-a-d-]
*M2/4
8e-\L
8e-\J
12f\L
12e-\
12c\J
=2
4e-\
16d-\LL
16B-\J
8A-\J
=3
4A-\
8c\L
8A-\J
=4
4A-\
4A-\
=5
8c\L
8A-\J
8c\L
8A-\J
=6
8F\L
8A-\J
8A-\L
8E-\J
=7
4E-\
4E-\
=8
8F\L
8E-\J
8F\L
8E-\J
=9
8C/L
8E-/J
16F\LL
16E-\
16E-\
16C\JJ
=10
8AA-/L
8AA-/J
4AA-/
=11
8A-\L
8A-\J
8c\L
8A-\J
=12
8F\L
8A-\J
8c\L
8A-\J
=13
8A-\L
8A-\J
8A-\
8r
=14
8c\L
8A-\J
8c\L
8A-\J
=15
8F\L
8A-\J
8A-\L
8E-\J
=16
8E-\L
8E-\J
4E-\
=17
8F\L
8E-\J
8F\L
8E-\J
=18
8C/L
8E-/J
16F\LL
16E-\
16E-\
16C\JJ
=19
8AA-/L
8AA-/J
4AA-/
==
*-
